X:1
T:Title
%%score [ 1 2 3 4 ]
L:1/8
Q:1/4=83
M:4/4
K:E
V:1 treble nm="s" snm="s"
V:2 treble nm="a" snm="a"
V:3 treble-8 nm="t" snm="t"
V:4 bass nm="b" snm="b"
V:1
!f! G2 | B2 G2 c2 dc | f4 B2 G2 | (F E2) G AB c2 | B6 B2 | B2 G2 c2 dc | f4 B2 cd | e2 dc d2 B2 | %8
w: 1.Se,|ä- rans Ko- nung *|dra- ger I|Si- * ons por- * tar|in Och|pal- mer e- mot- *|ta- ger, O, *|Je- su, * tag ock|
w: 2.Om|al- la mörk- rets *|hä- rar Till|an- * lopp mot * oss|gå, Ej|de- ras våld för- *|fä- rar Dem, *|som med * Her- ran|
 (c4 B2) BG | A2 GF F3 G | G4 z4 | z8 | z8 | z8 |!p! z4 z2 G2 | c3 d B2 G2 | (F3 A) G2 c2 | %17
w: min! * O, *|Je- su, * tag ock|min!||||Jag|har ej an- nan|gå- * va. Jag|
w: stå, * Dem, *|som med * Her- ran|stå.||||All|makt vår Je- sus|ä- * ger, All|
 (e2 c)B G2 B2 | (B A2 F) G2 G2 | G2 FE F2 D2 | G6 G2 | e3 e d2 c2 |!f!!<(! B6!<)! B2 | %23
w: har * ej an- nan|gå- * * va, Dess|brist- full- * het du|vet, Dess|brist- full- het du|vet, Ett|
w: makt * vår Je- sus|ä- * * ger I|him- mel * och på|jord, I|him- mel och på|jord, Och|
 c3 G A2 B2 | (c2 e2) d2 c2 | f3 c c2 A2 |!p! (A2 c2) B2 G2 | F3 F =G2 E2 |!f! F6 [GB]2 | %29
w: hjär- ta som vill|lo- * va, Ett|hjär- ta som vill|lo- * va, Ack,|din barm- här- tig-|het! Han|
w: he- la mörk- rets|lä- * ger, Och|he- la mörk- rets|lä- * ger Skall|stör- tas på hans|ord. Kom,|
 B2 G2 c2 dc | f4 B2 G2 | (F E2) G AB c2 | B6 B2 | B2 G2 c2 dc | f4 B2 cd | e2 dc d2 B2 | %36
w: öm- mar för oss *|al- la, Vår|nöd * han vet * så|väl, Han|kom- mer för att *|kal- la Till *|frid och * fröjd, till|
w: sol- upp- gång av *|höj- den, Upp-|lyft * oss i * din|famn! Giv|sa- lig- het av *|höj- den! Ja, *|a- men, * a- men,|
!ff! (c2 c2) B2 BG | !>!A2 (!>!GF) !>!F3 !>!E | !>!E6 |] %39
w: frid och fröjd, till *|frid och * fröjd var|själ.|
w: a- * men, ja, *|a- men i Je- su|namn!|
V:2
!f! G2 | E2 G2 =G2 G2 | [Fc]4 F2 D2 | C2 E2 E2 E2 | (E2 CE D2) A2 | G2 G2 =G2 G2 | [Fc]4 F2 F2 | %7
w: 1.Se|ä- rans Ko- nung|dra- ger I|Si- ons por- tar|in * * * Och|pal- mer e- mot-|ta- ger, O,|
w: 2.Om|al- la mörk- rets|hä- rar Till|an- lopp mot oss|gå, * * * Ej|de- ras våld för-|fä- rar Dem,|
 E2 E2 G2 G2 | (G2 FE F2) E2 | E2 E2 E2 D2 | E4 z4 | z8 |!p! z4 z2 D2 | G3 ^A F2 D2 | %14
w: Je- su, tag, O,|Je- su * tag, O,|Je- su tag ock|min!||Jag|har ej an- nan|
w: som med Her- ran|stå, * * * Dem,|som med Her- ran|stå.||All|makt vår Je- sus|
 (C3 E) D2 CD | E2 F2 GF ED | (C2 D2) ED E2 | (E2 A)F E2 E2 | (E3 D) E2 D2 | C2 C2 C2 C2 | %20
w: gä- * va, Jag *|har ej an- * nan *|gå- * va, * Jag|har * ej an- nan|gå- * va, Dess|brist- full- het du|
w: ä- * ger, All *|makt vår Je- * sus *|ä- * ger, * All|makt * vår Je- sus|ä- * ger I|him- mel och på|
 ^B,6 G2 | ^A3 A A2 A2 |!f!!<(! A6!<)! A2 | G3 G G2 G2 | A4 A2 F2 | A3 A F2 E2 |!p! (E2 A2) G2 E2 | %27
w: vet, Dess|brist- full- het du|vet, Ett|hjär- ta som vill|lo- va, Ett|hjär- ta som vill|lo- * va, Ack,|
w: jord, I|him- mel och på|jord, Och|he- la mörk- rets|lä- ger, Och|he- la mörk- rets|lä- * ger Skall|
 E3 E E2 E2 |!f! (E2 D2 C2) D2 | E2 G2 =G2 G2 | [Fc]4 F2 D2 | C2 E2 E2 E2 | (E2 CE D2) A2 | %33
w: din barm- här- tig-|het! * * Han|öm- mar för oss|al- la, Vår|nöd han vet så|väl, * * * Han|
w: stör- tas på hans|ord. * * Kom,|sol- upp- gång av|höj- den, Upp-|lyft oss i din|famn! * * * Giv|
 G2 G2 =G2 G2 | [Fc]4 F2 F2 | E2 E2 G2 G2 |!ff! (G2 FE) F2 E2 | !>!E2 (!>!EE) !>!ED !>!C2 | %38
w: kom- mer för att|kal- la Till|frid och fröjd, till|frid och * fröjd, till|frid och * fröjd * var|
w: sa- lig- het av|höj- den! Ja,|a- men, a- men,|a- * * men, ja,|a- men i Je- * su|
 !>!B,6 |] %39
w: själ.|
w: namn!|
V:3
!f! G2 | G2 B2 ^A2 A2 | A4 B2 B2 | G2 c2 cB A2 | (A3 G F2) d2 | e2 B2 ^A2 A2 | A4 B2 A2 | %7
w: 1.Se|ä- rans Ko- nung|dra- ger I|Si- ons por- * tar|in * * Och|pal- mer e- mot-|ta- ger, O,|
w: 2.Om|al- la mörk- rets|hä- rar Till|an- lopp mot * oss|gå, * * Ej|de- ras våld för-|fä- rar Dem,|
 G2 G2 B2 cd | (e2 dc) d2 c2 | c2 c2 c2 B2 | B4 z4 | z8 | z8 | z8 | z8 | z8 |!mf! z4 z2 G2 | %17
w: Je- su, tag, O, *|Je- su * tag, O,|Je- su tag ock|min!||||||Jag|
w: som med Her- ran *|stå, * * * Dem,|som med Her- ran|stå.||||||All|
 c3 d B2 G2 | (F3 A) G2 E2 | E2 E2 D2 D2 | D6 ^B2 | c3 c d2 e2 |!f!!<(! e3 c!<)! e2 d2 | %23
w: har ej an- nan|gå- * va, Dess|brist- full- het du|vet, Dess|brist- full- het du|vet, * * Ett|
w: makt vår Je- sus|ä- * ger I|him- mel och på|jord, I|him- mel och på|jord, * * Och|
 c3 c c2 ^e2 | (e2 c2) B2 A2 | c3 F A2 c2 |!p! (c2 e2) d2 G2 | A3 A ^A2 A2 |!f! (B2 FG A2) A2 | %29
w: hjär- ta som vill|lo- * va, Ett|hjär- ta som vill|lo- * va, Ack,|din barm- här- tig-|het! * * * Han|
w: he- la mörk- rets|lä- * ger, Och|he- la mörk- rets|lä- * ger Skall|stör- tas på hans|ord. * * * Kom,|
 G2 B2 ^A2 A2 | A4 B2 B2 | G2 c2 cB A2 | (A3 G F2) d2 | e2 B2 ^A2 A2 | A4 B2 A2 | G2 G2 B2 cd | %36
w: öm- mar för oss|al- la, Vår|nöd han vet * så|väl, * * Han|kom- mer för att|kal- la Till|frid och fröjd, till *|
w: sol- upp- gång av|höj- den, Upp-|lyft oss i * din|famn! * * Giv|sa- lig- het av|höj- den! Ja,|a- men, a- men, *|
!ff! (e2 dc) d2 c2 | !>!c2 (!>!cc) !>!cB !>!A2 | !>!G6 |] %39
w: frid och * fröjd, till|frid och * fröjd * var|själ.|
w: a- * * men, ja,|a- man i Je- * su|namn!|
V:4
!f! G,2 | E,2 E,2 E,2 E,2 | (E,2 D,C,) D,2 B,,2 | C,2 B,,2 A,,G,, F,,2 | B,,6 B,,2 | %5
w: 1.Se|ä- rans Ko- nung|dra- * * ger I|Si- ons por- * tar|in Och|
w: 2.Om|al- la mörk- rets|hä- * * rar Till|an- lopp mot * oss|gå, Ej|
 E,2 E,2 E,2 E,2 | (E,2 D,C,) D,2 B,,2 | C,2 C,2 G,,2 B,,2 | A,,6 G,,C, | F,,2 G,,A,, B,,2 B,,2 | %10
w: pal- mer e- mot-|ta- * * ger, O,|Je- su, tag ock|min! O, *|Je- su * tag ock|
w: de- ras våld för-|fä- * * rar Dem,|som med Her- ran|stå, Dem, *|som med * Her- ran|
!p! E,4 z2 G,2 | C3 D B,2 G,2 | (F,3 A,) G,2 F,2 | E,2 C,2 D,2 G,F, | (E,D, C,2) G,2 E,2 | %15
w: min! Jag|har ej an- nan|gå- * va, Jag|har ej an- nan *|gå- * * va, Jag|
w: stå All|makt vår Je- sus|ä- * ger, All|makt vår Je- sus *|ä- * * ger, All|
 C,2 A,,2 G,,2 G,2 | (A,2 F,2) E,2 C,B,, | A,,3 B,, E,2 G,2 | C,2 C,4 B,,2 | A,,2 A,,2 A,,2 A,,2 | %20
w: har ej an- nan|gå- * va, Jag *|har ej an- nan|gå- va, Dess|brist- full- het du|
w: makt vår Je- sus|ä- * ger, All *|makt vår Je- sus|ä- ger I|him- mel och på|
 G,,6 G,2 | =G,3 G, G,2 G,2 |!f!!<(! F,6!<)! F,2 | ^E,3 E, E,2 C,2 | F,4 F,2 E,2 | D,3 D, F,2 F,2 | %26
w: vet, Dess|brist- full- het du|vet, Ett|hjär- ta som vill|lo- va, Ett|hjär- ta som vill|
w: jord, I|him- mel och på|jord, Och|he- la mörk- rets|lä- ger, Och|he- la mörk- rets|
!p! B,,4 B,,2 C,2 | =C,3 C, C,2 C,2 |!f! B,,6 B,,2 | E,2 E,2 E,2 E,2 | (E,2 D,C,) D,2 B,,2 | %31
w: lo- va, Ack,|din barm- här- tig-|het! Han|öm- mar för oss|al- * * la, Vår|
w: lä- ger Skall|stör- tas på hans|ord. Kom,|sol- upp- gång av|höj- * * den, Upp-|
 C,2 B,,2 A,,G,, F,,2 | B,,6 B,,2 | E,2 E,2 E,2 E,2 | (E,2 D,C,) D,2 B,,2 | C,2 C,2 G,,2 B,,2 | %36
w: nöd han vet * så|väl, Han|kom- mer för att|kal- * * la Till|frid och fröjd, till|
w: lyft oss i * din|famn! Giv|sa- lig- het av|höj- * * den! Ja,|a- men, a- men,|
!ff! (A,,2 A,,2) A,,2 G,,C, | !>!F,,2 (!>!G,,A,,) !>!B,,2 !>!B,,2 | !>!E,6 |] %39
w: frid och fröjd, till *|frid och * fröjd var|själ.|
w: a- * men, ja, *|a- men i Je- su|namn!|

